!!!OTL: 191. Sher
!!!Genre:	Sher
!!!Mode:	Minor
!!!Listening/dance:	dance
!!!:	*B-:
!!!One_Mode:	no
**kern
*thru
*I"P1
*clefG2
*k[b-e-]
*B-:
=10!|:
!LO:TX:a:i:t=Bb-major
4ff
4ee-
=11
2dd
=12
8dd
4cc
8cc
=13
4.cc
8b-
=14
4dd
4cc
=15
2b-
=16
8fL
8f
8g
8aJ
*>B1
=17
8b-L
8cc
8dd
8ee-J
*>B
!LO:TX:a:i:t=Bb-major
4ff
4ee-
=11
2dd
=12
8dd
4cc
8cc
=13
4.cc
8b-
=14
4dd
4cc
=15
2b-
=16
8fL
8f
8g
8aJ
*>B2
=18:|!
!LO:TX:b:Bi:t=Da Capo al Fine
4b-
8r
!!!End-Modulation
==
*-
